!!!OTL: Tan shi sheng
!!!ARE: Asia, China,ˇHebei, Shangyi
!! Hanzu minge gailun, 222
!!!SCT: C1714
!!!YEM: Copyright 1995, estate of Helmut Schaffrath.
**kern
*ICvox
*Ivox
*M2/4
*k[b-]
*F:
{8f
8f
8f
16f
16g
=1
8e
8d
4c
=2
8dd
8dd
8b-
8a
=3
8.g
16f
4g}
=4
{8a
16g
16a
4cc
=5
8dd
8dd
4cc
=6
16a
16cc
16g
16f
16e
16g
8d
=7
2c}
=8
{8f
16c
16d
4f
=9
8g
16f
16g
4a
=10
16g
16a
16g
16f
8e
16d
16c
=11
4.d
8r}
=12
{8cc
16dd
16ff
4cc
=13
8dd
16cc
16dd
4cc
=14
8f
16cc
16a
16g
16a
16g
16f
=15
8d
16c
16d
16f
16g
16e
16d
=16
2c}
==
!!!AGN: Xiaodiao, MengjiangnÅ diao. Suku
!!!ONB: ESAC (Essen Associative Code) Database: ZHEN
!!!AMT: simple duple
!!!AIN: vox
!!!EED: Helmut Schaffrath
!!!EEV: 1.0
*-
